svg/UnitedNationsOCHA-Humanitarian/disaster_tsunami_icon_box.svg

<svg xmlns="http://www.w3.org/2000/svg" viewBox="0 0 32 32" enable-background="new 0 0 32 32"><path fill="#407cca" d="m25.6 0h-19.2c-3.52 0-6.4 2.88-6.4 6.4v19.2c0 3.52 2.88 6.4 6.4 6.4h19.2c3.521 0 6.4-2.88 6.4-6.4v-19.2c0-3.52-2.88-6.4-6.4-6.4m0 30.4h-19.2c-2.647 0-4.8-2.153-4.8-4.801v-7.941c2.692-6.336 8.319-9.976 16.218-9.976 3.635 0 5.719 1.999 6.504 3.613.759 1.558.665 4.52-1.444 5.058-.891.227-2.415-.379-2.891-1.445-.44-.991.016-2.467.722-2.889-6.446-1.647-13.339 16.298 8.371 16.867-.875.927-2.106 1.514-3.48 1.514"/></svg>

<?xml version="1.0" encoding="utf-8"?>
<!-- Generator: Adobe Illustrator 16.0.3, SVG Export Plug-In . SVG Version: 6.00 Build 0)  -->
<!DOCTYPE svg PUBLIC "-//W3C//DTD SVG 1.1//EN" "http://www.w3.org/Graphics/SVG/1.1/DTD/svg11.dtd">
<svg version="1.1" id="Layer_1" xmlns="http://www.w3.org/2000/svg" xmlns:xlink="http://www.w3.org/1999/xlink" x="0px" y="0px"
	 width="32px" height="32px" viewBox="0 0 32 32" enable-background="new 0 0 32 32" xml:space="preserve">
<path fill="#407CCA" d="M25.6,0H6.4C2.88,0,0,2.88,0,6.4v19.2C0,29.12,2.88,32,6.4,32h19.2c3.521,0,6.4-2.88,6.4-6.4V6.4
	C32,2.88,29.12,0,25.6,0z M25.6,30.4H6.4c-2.647,0-4.8-2.153-4.8-4.801v-7.941c2.692-6.336,8.319-9.976,16.218-9.976
	c3.635,0,5.719,1.999,6.504,3.613c0.759,1.558,0.665,4.52-1.444,5.058c-0.891,0.227-2.415-0.379-2.891-1.445
	c-0.44-0.991,0.016-2.467,0.722-2.889C14.263,10.372,7.37,28.317,29.08,28.886C28.205,29.813,26.974,30.4,25.6,30.4z"/>
</svg>
